X:8
T:Valse - Det m\aa{}ste hnda n\aa{}got (Mats Edn)
C:Groupa: Vildhonung
M:3/4
L:1/8
K:C
cB Ac BA|cB Ac BA|F6-|F2 A2 F2|E3F E2|D2 C3D|E6-|E6|\
cB Ac BA|cB Ac BA|F6-|F2 A2 F2|
E2 G3E|F2A2F2|\
E2 G3E|F2A2F2|Ec Fd Ec|Dc c2 BA|A6-|A6:|\
|:e3dc2|e2d2c2|d2B3c|
d4e2|d3cB2|c4B2|A6-|A4gf|\
e3dc2|e2d2c2|d2B3c|d4e2|d3cB2|c4B2|A6-|A6:|
